!!!OTL: 217. Herbstlust.
!!!COM: F. Reichardt
!!!ODT: 1799
!!!ARE: Europa, Mitteleuropa, Deutschland
!!!SCT: B0217
!!!TXL: @@DE
!!!YEM: Copyright 1995, estate of Helmut Schaffrath.
**kern	**text
*ICvox	*
*Ivox	*
*M6/8	*
*k[b-e-]	*
*B-:	*
=1	=1
!LO:TX:a:t=Etwas lebhaft.	!
{4b-	Bunt
8b-	ſind
8b-/L	ſchon
8aJ	.
8b-	die
=2	=2
4.cc	Wäl-
4.b-}	-der,
=3	=3
{4dd	gelb
8dd	die
8ddL	Stop-
8ccJ	.
8dd	-pel-
=4	=4
4.ee-	-fel-
4.dd}	-der,
=5	=5
{4cc	und
8cc	der
8ccL	Herbſt
8ddJ	.
8en	be-
=6	=6
4.f	-ginnt;
4r	.
8r}	.
=7	=7
{4dd	ro-
8cc	-the
4b-	Blät-
8a	-ter
=8	=8
4.a	fal-
4.g}	-len,
=9	=9
{4ee-	grau-
8dd	-e
8ccL	Re-
8ddJ	.
8b-	-bel
=10	=10
4.b-	wal-
4.a}	-len,
=11	=11
{8b-L	küh-
8ddJ	.
8ff	-ler
8fL	weht
8gJ	.
8a	der
=12	=12
4.b-	Wind.
4r	.
8r}	.
==	==
!!!AGN: Jahreszeiten - Lied, Herbst
!!!GTL: Jahreszeitenlieder
!!!ONB: ESAC (Essen Associative Code) Database: BOEHME
!!!AMT: compound duple
!!!AIN: vox
!!!EED: Helmut Schaffrath
!!!EEV: 1.0
!!@@COMMENT:" Gedicht von J.G. v. Salis-Seewis 1782. Mel. von Fr. Reichert:
!!"Lieder für die Jugend" 1799 S.10"
!!@@END:
!!!Text: J. G. v. Salis-Seewis
!!!URL-scan: https://archive.org/details/BoehmeVtLieder1895/page/n199/mode/2up
!!!ENC: Anna Maria Matuszewska
!!!EEV: 2024/24/06
*-	*-
